X:6
T:Wakefield Hunt. VWMLa.006
%%VWML:Anon2-3049-p5-0
F:http://www.vwml.org/record/Anon2/3049/p5
S:Anon. MS, late 18thC, Vaughan Williams Mem. Library
O:England;Yorkshire
Z:vmp/efdss.Simon Wilson. Reviewed PJH 2008.
M:6/8
L:1/8
Q:3/8=120
K:A
e3 c2d|ecA F2E|FGA E2c|d2c B2A|\
e3 c2d|ecA F2E|FGA E2d|cd BA3:|
|:ecA fdB|ecA F2E|FGA E2c|d2c B2A|\
ecA fdB|ecA F2E|FGA E2d|cdB A3:|
|:[C2E2][CE] [D2F2][DF]|[C2E2]c d2c|Bdf ecA|G2A B3|\
[C2E2][CE] [D2F2][DF]|[C2E2]c d2c|Bdf efd|cdB A3:|
